X:31
T:Willafjord
Z:Jack Campin, 2006, http://www.campin.me.uk/
M:C|
L:1/8
Q:1/2=108
K:D
B2|A2FA- ADFA|B2GB- BDGB|A2FA- ADFA|EFGA  GFED|
   A2FA- ADFA|B2GB- BDGB|ABcd  efge|f2d2  d2 :|
e2|f2df- ffdf|geaf  gfeg|f2df- fAdf|e2ce- eAce|
   f2df- ffdf|geaf  gfec|ABcd  efge|f2d2  d2 :|
